src/svg/icons/Device/bluetooth_searching.svg

<?xml version="1.0" encoding="UTF-8"?>
<svg width="24px" height="24px" viewBox="0 0 24 24" version="1.1" xmlns="http://www.w3.org/2000/svg" xmlns:xlink="http://www.w3.org/1999/xlink">
    <title>bluetooth_searching</title>
    <defs>
        <path d="M15.98,10.28 L14.6,11.66 C14.4,11.86 14.4,12.17 14.6,12.37 L15.98,13.75 C16.26,14.03 16.73,13.9 16.83,13.52 C16.94,13.02 17,12.52 17,12 C17,11.49 16.94,10.99 16.82,10.52 C16.73,10.14 16.26,9.99999999 15.98,10.28 L15.98,10.28 Z M20.1,7.77999998 C19.85,7.22999998 19.12,7.10999998 18.7,7.53999998 C18.44,7.79999998 18.39,8.17999998 18.53,8.51999999 C18.99,9.58999999 19.25,10.76 19.25,11.99 C19.25,13.23 18.99,14.41 18.52,15.48 C18.38,15.8 18.43,16.17 18.68,16.42 C19.09,16.83 19.78,16.71 20.03,16.19 C20.66,14.89 21.01,13.43 21.01,11.89 C21,10.44 20.68,9.03999999 20.1,7.77999998 Z M11.41,12 L15,8.41999999 C15.39,8.02999998 15.39,7.39999998 15,6.99999998 L10.71,2.70999996 C10.08,2.07999996 8.99999999,2.51999996 8.99999999,3.40999996 L8.99999999,9.58999999 L5.10999997,5.69999997 C4.71999997,5.30999997 4.08999997,5.30999997 3.69999997,5.69999997 C3.30999996,6.08999998 3.30999996,6.71999998 3.69999997,7.10999998 L8.58999999,12 L3.69999997,16.89 C3.30999996,17.28 3.30999996,17.91 3.69999997,18.3 C4.08999997,18.69 4.71999997,18.69 5.10999997,18.3 L8.99999999,14.41 L8.99999999,20.59 C8.99999999,21.48 10.08,21.93 10.71,21.3 L15,17 C15.39,16.61 15.39,15.98 15,15.58 L11.41,12 Z M11,5.82999997 L12.88,7.70999998 L11,9.58999999 L11,5.82999997 Z M11,18.17 L11,14.41 L12.88,16.29 L11,18.17 Z" id="path-1"></path>
    </defs>
    <g id="bluetooth_searching" stroke="none" stroke-width="1" fill="none" fill-rule="evenodd">
        <mask id="mask-2" fill="white">
            <use xlink:href="#path-1"></use>
        </mask>
        <use id="Combined-Shape" fill="#000000" xlink:href="#path-1"></use>
    </g>
</svg>

<svg height="24" viewBox="0 0 24 24" width="24" xmlns="http://www.w3.org/2000/svg"><path d="m15.98 10.28-1.38 1.38c-.2.2-.2.51 0 .71l1.38 1.38c.28.28.75.15.85-.23.11-.5.17-1 .17-1.52 0-.51-.06-1.01-.18-1.48-.09-.38-.56-.52-.84-.24zm4.12-2.5c-.25-.55-.98-.67-1.4-.24-.26.26-.31.64-.17.98.46 1.07.72 2.24.72 3.47 0 1.24-.26 2.42-.73 3.49-.14.32-.09.69.16.94.41.41 1.1.29 1.35-.23.63-1.3.98-2.76.98-4.3-.01-1.45-.33-2.85-.91-4.11zm-8.69 4.22 3.59-3.58c.39-.39.39-1.02 0-1.42l-4.29-4.29c-.63-.63-1.71-.19-1.71.7v6.18l-3.89-3.89c-.39-.39-1.02-.39-1.41 0s-.39 1.02 0 1.41l4.89 4.89-4.89 4.89c-.39.39-.39 1.02 0 1.41s1.02.39 1.41 0l3.89-3.89v6.18c0 .89 1.08 1.34 1.71.71l4.29-4.3c.39-.39.39-1.02 0-1.42zm-.41-6.17 1.88 1.88-1.88 1.88zm0 12.34v-3.76l1.88 1.88z" fill="#3f3f3f" fill-rule="evenodd"/></svg>
